img/ui-arrow-expand.svg

<svg width="21" height="21" viewBox="0 0 21 21" fill="none" xmlns="http://www.w3.org/2000/svg">
<path d="M0.0976563 20.2031C0.0976563 20.6173 0.433443 20.9531 0.847656 20.9531L7.59766 20.9531C8.01187 20.9531 8.34766 20.6173 8.34766 20.2031C8.34766 19.7889 8.01187 19.4531 7.59766 19.4531L1.59766 19.4531L1.59766 13.4531C1.59766 13.0389 1.26187 12.7031 0.847656 12.7031C0.433442 12.7031 0.0976561 13.0389 0.0976561 13.4531L0.0976563 20.2031ZM9.04078 13.0707C9.33368 12.7778 9.33368 12.3029 9.04078 12.01C8.74789 11.7171 8.27302 11.7171 7.98012 12.01L9.04078 13.0707ZM1.37799 20.7335L9.04078 13.0707L7.98012 12.01L0.317326 19.6728L1.37799 20.7335Z" fill="#BBBBBB"/>
<path d="M20.75 1.04883C20.75 0.634615 20.4142 0.298828 20 0.298828L13.25 0.298828C12.8358 0.298828 12.5 0.634614 12.5 1.04883C12.5 1.46304 12.8358 1.79883 13.25 1.79883L19.25 1.79883L19.25 7.79883C19.25 8.21304 19.5858 8.54883 20 8.54883C20.4142 8.54883 20.75 8.21304 20.75 7.79883L20.75 1.04883ZM11.8069 8.18129C11.514 8.47419 11.514 8.94906 11.8069 9.24195C12.0998 9.53485 12.5746 9.53485 12.8675 9.24195L11.8069 8.18129ZM19.4697 0.518498L11.8069 8.18129L12.8675 9.24195L20.5303 1.57916L19.4697 0.518498Z" fill="#BBBBBB"/>
</svg>

<svg fill="none" height="21" viewBox="0 0 21 21" width="21" xmlns="http://www.w3.org/2000/svg"><g fill="#bbb"><path d="m.125488 20.1543c0 .4142.335787.75.75.75h6.750002c.41421 0 .75-.3358.75-.75s-.33579-.75-.75-.75h-6v-6c0-.4142-.33579-.75-.750002-.75-.414214 0-.75.3358-.75.75zm8.943122-7.1325c.2929-.2929.2929-.7677 0-1.0606-.29289-.2929-.76776-.2929-1.06066 0zm-7.66279 7.6628 7.66279-7.6628-1.06066-1.0606-7.662792 7.6628z"/><path d="m20.7778 1c0-.414214-.3358-.75-.75-.75h-6.75c-.4142 0-.75.335786-.75.75 0 .41421.3358.75.75.75h6v6c0 .41421.3358.75.75.75s.75-.33579.75-.75zm-8.9431 7.13247c-.2929.29289-.2929.76776 0 1.06066.2929.29289.7678.29289 1.0607 0zm7.6628-7.6628-7.6628 7.6628 1.0607 1.06066 7.6628-7.6628z"/></g></svg>
